!!!ONB: MCCC : ILB0177_02 : Extracted Monophonic Melody
!!!COM: Beethoven, Ludwig van
!!!OPR: Piano Sonata No.16
!!!OMV: 2
!!!SCT: Op.31 No.1
!!!ODT: 1801///
**kern
*thru
*staff1
*clefG2
*k[]
*C:
*M9/8
*MM63
=1
2.cc
[4ee
16.ee]
32cc
=2
[4.g
4g]
16f#
16g
16g#
16a
16b-
16b
16cc
16cc#
=3
2.dd
[4ff
16.ff]
32dd
=4
[4.g
4g]
16g
16a
16b-
16b
16cc
16cc#
16dd
16dd#
=5
4.ee
4.ff
4.gg
=6
8gg#
[4aa
8aa]
[4aa
8aa]
16ff
16ee
16ff
16dd
=7
8cc
16.cc
32b
16.cc
32ee
[4.g
32g]
32a
32g
32f#
48g
48a
48b
48cc
48dd
48ee
16ff
32rdd
32b
=8
4.dd
8cc
8g
8f#
8f
8e
8d
=9
8c
8e
8e
8e
8e
8e
8e
8e
8e
=10
32r
32c
32e
32d
32f
32e
32g
32f
32a
32g
32b
32a
32cc
32b
32dd
32cc
48ee
48dd
48ff
48ee
48gg
48ff
48aa
48gg
48bb
48aa
48ccc
48bb
48ddd
48ccc
48eee
48ddd
48ccc
48bb
48aa
48gg
48ff
48ee
48dd
48cc
56b
56a
56g
56f
56e
56d
56c
=11
8B
8f
8f
8f
8f
8f
8f
8f
8f
=12
32r
32B
32d
32c
32e
32d
32f
32e
32g
32f
32a
32g
32b
32a
32cc
32b
48dd
48cc
48ee
48dd
48ff
48ee
48gg
48ff
48aa
48gg
48bb
48aa
48ccc
48bb
48ddd
48ccc
48eee
48ddd
64fff
64eee
64ddd
64ccc
64bb
64aa
64gg
64bb
64ddd
64ccc
64bb
64aa
64gg
64ff
64ee
64dd
=13
8dd#
4ee
[4.ccc
16ccc]
16bb
16aa
16gg
16ff#
16ee
=14
8ee
[4dd
16dd]
16cc#
16dd
16cc#
16dd
16cc#
16dd
16cc#
16dd
16ee
16ff#
16gg
=15
16a
16g#
16a
16b
24cc
24dd
24ee
8ee
[4d
16d]
32e
32d
16c#
16d
16e
16f#
=16
4.a
8g
8g
8g
8g
8f#
8g
=17
8g
8f#
8g
8g
8f#
8g
8g
8f#
8cc#
=18
4.cc#[
4cc#]
8cc#
8cc#
8dd
8ee
=19
4.ee
8ff
8f
8f
8f
8e
8f
=20
8f
8e
8f
8f
8e
8f
8f
8e
8b
=21
4.b[
4b]
8b
8b
8cc
8dd
=22
4.ee
4.dd
4.cc
=23
4b
8rdd
4g
8b
4cc
8f#
=24
8a
8g
8rdd
8b
8a
8b
8dd
8cc
8f#
=25
8g
16rff
16dd
16cc
16f#
8g
16rdd
16dd
16cc
16f#
8g
16rdd
16dd
16cc
16f#
=26
2.g
4r
8r
=27
2.cc
[4ee
16.ee]
32cc
=28
[4.g
4g]
16f#
16g
16g#
16a
16b-
16b
16cc
16cc#
=29
2.dd
[4gg
32.gg]
64ff
64ee
64dd
64cc
64b
=30
8a
[4g
4g]
16g
16a
16b-
16b
16cc
16cc#
16dd
16dd#
=31
40ee
40ff
40ee
40dd#
40ee
8ccc
8r
40ff
40gg
40ff
40ee
40ff
8ccc
8r
40gg
40aa
40gg
40ff#
40gg
8ccc
8r
=32
8gg#
[4aa
8aa]
[4aa
8aa]
16ff
16ee
16ff
16dd
=33
32cc
32dd
32cc
32b
16cc
16dd
16ee
16ff
16gg
16aa
16bb
16ccc
16ddd
16eee
8fff
8r
8b
=34
4.dd
8cc
8g
8e-
8c
8G
8E-
=35
4C
8r
4r
8r
4r
8r
=36
4.ee-
4.cc
4.a-
=37
[2.f
4f]
16f
16ff
=38
[4ff
16ff]
16ee-
8ee-
8.dd-
16cc
8cc
8.b-
16a-
=39
4.g
4.dd-
4.cc
=40
4.b-
4.a-
4.e-
=41
16e-
16e-
16e-
16e-
16e-
16e-
16e-
16e-
16e-
16e-
16e-
16e-
16e-
16e-
16e-
16e-
16e-
16e-
=42
16eee-
16ddd-
16ccc
16bb-
16aa-
16gg
16ff
16ee-
16dd-
16cc
16b-
16a-
16g
16a-
16b-
16a-
16cc
16a-
=43
16g
16e-
16e-
16e-
16e-
16e-
16e-
16e-
16e-
16e-
16e-
16e-
16e-
16e-
16e-
16e-
16e-
16e-
=44
16e-
16e-
16e-
16e-
16e-
16e-
16e-
16e-
16e-
16e-
16e-
16e-
16e-
16e-
16e-
16e-
16e-
16e-
=45
16e-
16e-
16e-
16e-
16e-
16e-
16e-
16e-
16e-
16e-
16e-
16e-
16e
16e
16e
16e
16e
16e
=46
16ccc
16bb-
16aa-
16gg
16ff
16ee-
16dd-
16cc
16b-
16a-
16g
16f
16e
16f
16g
16f
16a-
16f
=47
16e
16c
16c
16c
16c
16c
16c
16c
16c
16c
16c
16c
16c
16c
16c
16c
16c
16c
=48
16c
16c
16c
16c
16c
16c
16c
16c
16c
16c
16c
16c
16c
16c
16c
16c
16c
16c
=49
16c
16d-
16d-
16d-
16d-
16d-
16aa-
16ff
16dd-
16dd-
16dd-
16dd-
4.r
=50
4.r
16ff
16dd
16b
16b
16b
16b
4.r
=51
4.r
16ddd
16bb
16ff
16ff
16ff
16ff
16ccc
16gg
16ee-
16ee-
16ee-
16ee-
=52
16aa-
16ff
16dd-
16dd-
16dd-
16dd-
16aa-
16ff
16dd-
16dd-
16dd-
16dd-
16aa
16ee-
16cc
16cc
16cc
16cc
=53
4b
8r
4.ff[
8ff]
4ee-
=54
4dd
8r
4.ff[
8ff]
4ee-
=55
4.dd
4.dd-
4.cc
=56
4b
8f
8r
4b
8r
4cc
=57
8r
4f#
8r
4c
8r
4F#
=58
4G
8r
8r
16r
16G
16A
16B
4.c
=59
4.B
8r
16r
16B
16c
16d
4.e-
=60
4d
8r
8r
16r
16g
16a
16b
4.cc
=61
4.b
4.ee-
4.dd
=62
4.ee
4.dd
4.aa
=63
4.gg
4.ff
4.ee
=64
4.dd
4.cc
16b
16cc#
16dd
16ee
16ff
16b
=65
2.cc
[4ee
16.ee]
32cc
=66
[4.g
4g]
16f#
16g
16g#
16a
16b-
16b
16cc
16cc#
=67
2.dd
[4ff
16.ff]
32dd
=68
[4.g
4g]
16g
16a
16b-
16b
16cc
16cc#
16dd
16dd#
=69
4.ee
4.ff
4.gg
=70
8gg#
[4aa
8aa]
[4aa
8aa]
16ff
16ee
16ff
16dd
=71
8cc
16.cc
32b
16.cc
32ee
[4.g
32g]
32a
32g
32f#
48g
48a
48b
48cc
48dd
48ee
16ff
32r
32b
=72
4.dd
16cc
16g
16f#
16g
16a
16g
16f
16e
16g
16f
16e
16d
=73
16c
16c
16e
16c
16e
16c
16e
16c
16e
16c
16e
16c
16e
16c
16e
16c
16e
16c
=74
32r
32b
32dd
32cc
32ee
32dd
32ff
32ee
32gg
32ff
32aa
32gg
32bb
32aa
32ccc
32bb
32ddd
32ccc
32eee
32ddd
32ccc
32bb
32aa
32gg
32ff#
32gg
32aa
32gg
32ff
32ee
32dd
32cc
32b
32cc
32ee
32cc
=75
16b
16B
16f
16B
16f
16B
16f
16B
16f
16B
16f
16B
16f
16B
16f
16B
16f
16B
=76
32r
32b
32dd
32cc
32ee
32dd
32ff
32ee
32gg
32ff
32aa
32gg
32bb
32aa
32ccc
32bb
32ddd
32ccc#
32eee
32ddd
32fff
32eee
32ddd
32ccc
32bb
32ccc
32ccc#
32ddd
32ccc
32bb
32aa
32gg
32ff#
32gg
32aa
32ff
=77
8dd#
4ee
[4.ccc
16ccc]
16bb
16aa
16gg
16ff#
16ee
=78
8ee
[4dd
16dd]
8dd
8dd
16dd
24dd
24cc#
24dd
24ee-
24ee
24ff
16ff#
16gg
=79
24a
24g#
24a
32b-
32b
32cc
32cc#
24dd
24dd#
24ee
8ee
[4d
16d]
48e
48d
48c#
48d
48e
48f#
48g#
48a
48b
16cc
32r
32f#
=80
4.a
8g
8g
8g
8g
8f#
8g
=81
8g
8f#
16g
16g
16r
16g
16r
16f#
16r
16g
16r
16g
16r
16f#
16r
16cc#
=82
4.cc#
4cc#[
16cc#]
16cc#
16r
16cc#
16r
16dd
16r
16ee
=83
4.ee
8ff
8f
8f
8f
8e
8f
=84
8f
8e
16f
16f
16r
16f
16r
16e
16r
16f
16r
16f
16r
16e
16r
16b
=85
4.b
4b[
16b]
16b
16r
16b
16r
16cc
16r
16dd
=86
4.ee
4.dd
4.cc
=87
4b
8r
8r
8a
8b
4cc
8f#
=88
8a
16g
8g
16g
8b
8a
8b
8dd
8cc
8f#
=89
8g
8f
16cc
16f#
8g
8f
16cc
16f#
8g
8f
16cc
16f#
=90
2.g
4r
8r
=98
2.cc
[4ee
16.ee]
32cc
=99
[4.g
4g]
16f#
16g
16g#
16a
16b-
16b
16cc
16cc#
=100
2.dd
[4gg
32.gg]
64ff
64ee
64dd
64cc
64b
=101
8a
[4g
4g]
16g
16a
16b-
16b
16cc
16cc#
16dd
16dd#
=103
16gg#
8aa
8aa
8aa
8aa
8aa
[16aa
16aa]
16ee
16ff
16ee
16ff
16dd
=104
32cc
32dd
32cc
32b
32r
32cc
32r
32dd
32r
32ee
32r
32ff
32r
32gg
32r
32aa
32r
32bb
32r
32ccc
32r
32ddd
32r
32eee
8fff
8r
8b
=105
8cc
8g
8f
8e
8d
8c
16B
16c
16B
16c
16d
16c
=106
2.c
4.f
=107
2.B-
4.f
=108
8a
8cc
8ff
8aa
[4ccc
8ccc]
16bb
16aa
16gg
16ff
=109
16ee
16dd#
16ee
16ff#
16gg
16ee
16r
16dd#
16ee
16ff#
16gg
16ee
16r
16cc#
16dd
16ee
16ff
16dd
=110
8cc
8r
8r
4r
8r
4r
8r
=111
8r
8f#
8a
8dd
8ff#
8aa
4.ddd
=112
8r
8e
8g
8cc
8ee
8gg
4.ccc
=113
16ccc
8fff
8fff
[16fff
16fff]
8fff
8fff
[16fff
16fff]
8fff
8eee
16ddd
=114
16ccc
16ff#
16gg
16dd#
16ee
16cc
16r
16f#
16g
16d#
16e
16c
16r
16e
16f
16c#
16d
16B
=115
16c
16G
16E
16G
16E
16G
16E
16G
16E
16G
16E
16G
16E
16G
16E
16G
16E
16G
=116
8B
8d
8f[
8f]
8e
8d
8c
8B
8d
=117
16c
16G
16E
16G
16E
16G
16E
16G
16E
16G
16E
16G
16E
16G
16E
16G
16E
16G
=118
8B
8d
8f[
8f]
8e
8d
8c
8B
8d
=119
8c
16E
16G
16E
16G
8B
4f[
8f]
8d
8B
=120
8c
16E
16G
16E
16G
8B
4f[
8f]
16e
16d
16c
16B
=121
2.d[
8d]
8d
8d
=122
4.d
4c
8r
4r
8r
=123
4.f
4e
8r
4r
8r
=124
4.a
4.g
4.f
=125
4.f
16e
16B
16c
16d#
16e
16f#
16g
16b
16cc
16dd#
16ee
16gg
=126
4.bb
4ccc
8r
4r
8r
==
*-
